jsapp/svg-icons/report-add-to-template.svg

<?xml version="1.0" encoding="UTF-8"?>
<svg width="40px" height="40px" viewBox="0 0 40 40" version="1.1" xmlns="http://www.w3.org/2000/svg" xmlns:xlink="http://www.w3.org/1999/xlink">
    <!-- Generator: Sketch 50.2 (55047) - http://www.bohemiancoding.com/sketch -->
    <title>Icons/report-add-to-template</title>
    <desc>Created with Sketch.</desc>
    <defs>
        <path d="M22.414,8 L27,12.586 L27,22 L25,22 L25,14 L21,14 L21,10 L11,10 L11,28.001 L22,28.001 L22,30.001 L11,30.001 C9.897,30.001 9,29.104 9,28.001 L9,10 C9,8.896 9.897,8 11,8 L22.414,8 Z M19.8949,17.5488 L21.3879,20.5348 L23.9999,18.7928 L23.9999,21.1968 L21.5549,22.8268 C21.3159,22.9858 21.0229,23.0358 20.7439,22.9618 C20.4669,22.8888 20.2339,22.6988 20.1059,22.4438 L19.1019,20.4348 L17.9289,23.3668 C17.8039,23.6798 17.5309,23.9068 17.2019,23.9758 C16.8729,24.0448 16.5319,23.9408 16.2929,23.7018 L14.8729,22.2818 L11.9999,24.1968 L11.9999,21.7928 L14.4459,20.1628 C14.8419,19.8998 15.3709,19.9508 15.7079,20.2878 L16.6349,21.2168 L18.0719,17.6238 C18.2179,17.2588 18.5649,17.0138 18.9589,16.9958 C19.3519,16.9748 19.7189,17.1958 19.8949,17.5488 Z M29.9999,27 L32.9999,27 L32.9999,29 L29.9999,29 L29.9999,32 L27.9999,32 L27.9999,29 L24.9999,29 L24.9999,27 L27.9999,27 L27.9999,24 L29.9999,24 L29.9999,27 Z" id="path-1"></path>
    </defs>
    <g id="Icons/report-add-to-template" stroke="none" stroke-width="1" fill="none" fill-rule="evenodd">
        <mask id="mask-2" fill="white">
            <use xlink:href="#path-1"></use>
        </mask>
        <use id="Mask" fill="#000000" xlink:href="#path-1"></use>
    </g>
</svg>

<svg height="40" viewBox="0 0 40 40" width="40" xmlns="http://www.w3.org/2000/svg"><path d="m22.414 8 4.586 4.586v9.414h-2v-8h-4v-4h-10v18.001h11v2h-11c-1.103 0-2-.897-2-2v-18.001c0-1.104.897-2 2-2zm-2.5191 9.5488 1.493 2.986 2.612-1.742v2.404l-2.445 1.63c-.239.159-.532.209-.811.135-.277-.073-.51-.263-.638-.518l-1.004-2.009-1.173 2.932c-.125.313-.398.54-.727.609s-.67-.035-.909-.274l-1.42-1.42-2.873 1.915v-2.404l2.446-1.63c.396-.263.925-.212 1.262.125l.927.929 1.437-3.593c.146-.365.493-.61.887-.628.393-.021.76.2.936.553zm10.105 9.4512h3v2h-3v3h-2v-3h-3v-2h3v-3h2z" fill-rule="evenodd"/></svg>
